X:541
M:C|
L:1/8
Q:1/4=140
K:D
|:F|D<D F>D A>F E<B|D<D F>D A>DF>D|E>DF>D A>F E<B|
|:A|d<d d>B e>d e<f|A<A B>A d3f|d<d d>B e>d e<f|A<A B>A d3:|
|:f/g/|a>fd>f e>d e<f|a/g/f/e/ d>A d>ef>d|g>af>b e>d e<f|A<A B>A d3:|
|:f|D<D A>F E3B|D<D F>D A3f|D<D A>F E3B|D<D F>A d>ef>d|
e>Bd>A B>F A>B,|A,>A, B,>A, D3:|
|:f|d<df<d g>f e<a|d<d f>d g>ef>d|e>df>d g>f e<a|A<A B>A d3:|

